X:1
T:Title
%%score { ( 1 3 ) | ( 2 4 ) }
L:1/8
Q:1/4=100
M:4/4
K:G
V:1 treble nm="Grand Piano"
V:3 treble 
V:2 treble 
V:4 treble 
V:1
 D2 E>F G2 B2 | [Bd]2 [_Be]>[B^c] [=Bd]4 | B2 B>c d2 B2 | z2 B2 [FA]4 | D2 E>F G2 B2 | %5
w: Richard~Harding * * * *|||||
 [^DB]2 [DF]>[DA] [B,EG]4 | z4 .A2 z2 |[M:5/4] z2 G,2 c6 |[M:4/4] B2 d2 B2 G2 | %9
w: ||||
 [EG]>[EA] [EG]>E E2 D2 | G>G G>A B>[Ac] [Bd]>B | z2 A2 [FA]4 | B2 d2 B2 G2 | %13
w: ||||
 [EG]>[EA] [EG]>E E2 D2 | E>F G>[Ge] d>B G>A | B>d [FA]>[FB] G4 |] %16
w: |||
V:2
 [G,B,]2 [G,C]>[G,A,D] [G,B,D]2 [G,DG]2 | [G,D]2 [G,^C]>[G,E] [G,D]4 | %2
 [G,DG]2 [G,DG]>[A,DF] [B,DG]2 [G,DG]2 | [A,DF]2 [A,^CG]2[K:bass] D2 z2 | %4
 [G,B,]2 [G,C]>[G,A,D] [G,B,D]2 [G,B,D]2 | [B,,B,]2 [B,,B,]>[B,,B,] E,4 | %6
 A,,2 [A,,A,]>[A,,A,] [^C,A,]2 [G,A,^C]2 |[M:5/4] [F,A,]2 E,2 [D,F,]6 | %8
[M:4/4][K:treble] [G,B,D]2 [G,B,G]2 [G,DG]2[K:bass] [G,B,D]2 | %9
 [C,C]>[C,C] [C,C]>[C,C] [G,C]2 [G,B,]2 | %10
 [G,B,D]>[G,B,D] [G,B,D]>[G,CF] [G,DG]>[G,D] [G,D]>[G,DG] | [A,DF]2 [A,^CG]2[K:bass] D2 z2 | %12
 [G,B,D]2 [G,B,G]2 [G,DG]2[K:bass] [G,B,D]2 | [C,C]>[C,C] [C,C]>[E,C] [G,C]2 [G,B,]2 | %14
 [C,G,C]>[C,G,C] [E,C]>[E,C][K:treble] [G,B,G]>[G,B,G] [G,B,]>[G,CF] | %15
 [G,DG]>[G,B,G][K:bass] [D,C]>[D,C] [G,B,]4 |] %16
V:3
 x8 | x8 | x8 | A2 z z/ E/ z2 C2 | x8 | x8 | [^CGA]2 [G^c]>[GB] E-[EG]FE | %7
[M:5/4] D2- D2- D4- D3/2 z/ |[M:4/4] x8 | x8 | x8 | A2 z z/ E/ z2 C2 | x8 | x8 | x8 | x8 |] %16
V:4
 x8 | x8 | x8 | z4[K:bass] D,4 | x8 | x8 | x8 |[M:5/4] x10 |[M:4/4][K:treble] x6[K:bass] x2 | x8 | %10
 x8 | z4[K:bass] D,4 | x6[K:bass] x2 | x8 | x4[K:treble] x4 | x2[K:bass] x6 |] %16

